X:54
M:4/4
L:1/4
K:G
d2 e d | (B d) A2 | (B G B) ^c | d2 z d | e2 (d B) | (d A) (G c) | (B A G/E/) F | G2 z G | (A3/2 B/) c2 | (B3/2 ^c/) d2 | (A F) (G E) | D D z D | G2 A2 | (B d2) c | (B G A2) | B4 | d2 e d | (B d) A2 | (B G B) ^c | d2 z d | e2 (d B) | (d A) (G c) | (B A G/E/) F | G2 z G | (A3/2 B/) c2 | (B3/2 ^c/) d2 | (A F) (G E) | D D z D | G2 A2 | (B d2) c | B2 A2 | (E F) G2 | z2 !sintro!A2 | (B A) (G3/4F// E) | D2 A2 | (B A) (G/E/ F) | G4 !eintro!|]
